icons/feed-add-user-16.svg

<svg width="16" height="16" viewBox="0 0 16 16" fill="none" xmlns="http://www.w3.org/2000/svg">
<path fill-rule="evenodd" clip-rule="evenodd" d="M8 0C3.58172 0 0 3.58172 0 8C0 12.4183 3.58172 16 8 16C12.4183 16 16 12.4183 16 8C16 3.58172 12.4183 0 8 0ZM9.0625 4.3125C9.0625 3.76022 8.61478 3.3125 8.0625 3.3125C7.51022 3.3125 7.0625 3.76022 7.0625 4.3125V7.0625H4.3125C3.76022 7.0625 3.3125 7.51022 3.3125 8.0625C3.3125 8.61478 3.76022 9.0625 4.3125 9.0625H7.0625V11.8125C7.0625 12.3648 7.51022 12.8125 8.0625 12.8125C8.61478 12.8125 9.0625 12.3648 9.0625 11.8125V9.0625H11.8125C12.3648 9.0625 12.8125 8.61478 12.8125 8.0625C12.8125 7.51022 12.3648 7.0625 11.8125 7.0625H9.0625V4.3125Z" fill="black" style="fill:black;fill:black;fill-opacity:1;"/>
</svg>

<svg xmlns="http://www.w3.org/2000/svg" width="16" height="16" viewBox="0 0 16 16"><path d="M8 0a8 8 0 1 1 0 16A8 8 0 0 1 8 0Zm1.062 4.312a1 1 0 1 0-2 0v2.75h-2.75a1 1 0 0 0 0 2h2.75v2.75a1 1 0 1 0 2 0v-2.75h2.75a1 1 0 1 0 0-2h-2.75Z"/></svg>
